dist/images/burger/close.svg

<svg width="18" height="18" viewBox="0 0 18 18" fill="none" xmlns="http://www.w3.org/2000/svg">
<path fill-rule="evenodd" clip-rule="evenodd" d="M2.80349 1.40523C2.4113 1.01637 1.77544 1.01637 1.38325 1.40523L1.29414 1.49358C0.901953 1.88244 0.901954 2.51289 1.29414 2.90175L7.44507 9.0004L1.29448 15.0987C0.90229 15.4876 0.90229 16.118 1.29448 16.5069L1.38313 16.5948C1.77532 16.9836 2.41118 16.9836 2.80336 16.5948L8.95395 10.4965L14.9674 16.4588C15.3596 16.8476 15.9954 16.8476 16.3876 16.4588L16.4767 16.3704C16.8689 15.9816 16.8689 15.3511 16.4767 14.9623L10.4633 8.99994L16.4766 3.03773C16.8688 2.64888 16.8688 2.01842 16.4766 1.62957L16.388 1.54167C15.9958 1.15281 15.3599 1.15282 14.9677 1.54167L8.95441 7.50387L2.80349 1.40523Z" fill="#5B1A0D"/>
<path d="M1.38325 1.40523L1.55927 1.58276L1.38325 1.40523ZM2.80349 1.40523L2.97951 1.2277V1.2277L2.80349 1.40523ZM1.29414 1.49358L1.47016 1.67111L1.29414 1.49358ZM1.29414 2.90175L1.11812 3.07928H1.11812L1.29414 2.90175ZM7.44507 9.0004L7.62109 9.17793L7.80014 9.0004L7.62109 8.82287L7.44507 9.0004ZM1.29448 15.0987L1.4705 15.2762L1.29448 15.0987ZM1.29448 16.5069L1.11846 16.6844H1.11846L1.29448 16.5069ZM1.38313 16.5948L1.55915 16.4172H1.55915L1.38313 16.5948ZM2.80336 16.5948L2.97939 16.7723H2.97939L2.80336 16.5948ZM8.95395 10.4965L9.12997 10.3189L8.95395 10.1444L8.77793 10.3189L8.95395 10.4965ZM14.9674 16.4588L14.7914 16.6363L14.9674 16.4588ZM16.3876 16.4588L16.5636 16.6363L16.3876 16.4588ZM16.4767 16.3704L16.3007 16.1929L16.4767 16.3704ZM16.4767 14.9623L16.6528 14.7847L16.4767 14.9623ZM10.4633 8.99994L10.2873 8.82241L10.1082 8.99994L10.2873 9.17747L10.4633 8.99994ZM16.4766 3.03773L16.6526 3.21526V3.21526L16.4766 3.03773ZM16.4766 1.62957L16.3006 1.8071V1.8071L16.4766 1.62957ZM16.388 1.54167L16.564 1.36414V1.36414L16.388 1.54167ZM14.9677 1.54167L15.1437 1.7192V1.7192L14.9677 1.54167ZM8.95441 7.50387L8.77839 7.6814L8.95441 7.85593L9.13043 7.6814L8.95441 7.50387ZM1.55927 1.58276C1.854 1.29053 2.33274 1.29053 2.62747 1.58276L2.97951 1.2277C2.48987 0.742216 1.69687 0.742216 1.20723 1.2277L1.55927 1.58276ZM1.47016 1.67111L1.55927 1.58276L1.20723 1.2277L1.11812 1.31605L1.47016 1.67111ZM1.47016 2.72422C1.17661 2.43316 1.17661 1.96216 1.47016 1.67111L1.11812 1.31605C0.627293 1.80271 0.627294 2.59262 1.11812 3.07928L1.47016 2.72422ZM7.62109 8.82287L1.47016 2.72422L1.11812 3.07928L7.26904 9.17793L7.62109 8.82287ZM1.4705 15.2762L7.62109 9.17793L7.26904 8.82287L1.11846 14.9212L1.4705 15.2762ZM1.4705 16.3293C1.17695 16.0383 1.17695 15.5673 1.4705 15.2762L1.11846 14.9212C0.62763 15.4078 0.62763 16.1977 1.11846 16.6844L1.4705 16.3293ZM1.55915 16.4172L1.4705 16.3293L1.11846 16.6844L1.20711 16.7723L1.55915 16.4172ZM2.62734 16.4172C2.33261 16.7095 1.85388 16.7095 1.55915 16.4172L1.20711 16.7723C1.69675 17.2578 2.48974 17.2578 2.97939 16.7723L2.62734 16.4172ZM8.77793 10.3189L2.62734 16.4172L2.97939 16.7723L9.12997 10.674L8.77793 10.3189ZM15.1434 16.2813L9.12997 10.3189L8.77793 10.674L14.7914 16.6363L15.1434 16.2813ZM16.2116 16.2813C15.9169 16.5735 15.4381 16.5735 15.1434 16.2813L14.7914 16.6363C15.281 17.1218 16.074 17.1218 16.5636 16.6363L16.2116 16.2813ZM16.3007 16.1929L16.2116 16.2813L16.5636 16.6363L16.6528 16.548L16.3007 16.1929ZM16.3007 15.1398C16.5943 15.4309 16.5943 15.9019 16.3007 16.1929L16.6528 16.548C17.1436 16.0613 17.1436 15.2714 16.6528 14.7847L16.3007 15.1398ZM10.2873 9.17747L16.3007 15.1398L16.6528 14.7847L10.6393 8.82241L10.2873 9.17747ZM16.3006 2.8602L10.2873 8.82241L10.6393 9.17747L16.6526 3.21526L16.3006 2.8602ZM16.3006 1.8071C16.5941 2.09815 16.5941 2.56915 16.3006 2.8602L16.6526 3.21526C17.1435 2.72861 17.1435 1.93869 16.6526 1.45204L16.3006 1.8071ZM16.2119 1.7192L16.3006 1.8071L16.6526 1.45204L16.564 1.36414L16.2119 1.7192ZM15.1437 1.7192C15.4385 1.42697 15.9172 1.42697 16.2119 1.7192L16.564 1.36414C16.0743 0.878657 15.2813 0.878658 14.7917 1.36414L15.1437 1.7192ZM9.13043 7.6814L15.1437 1.7192L14.7917 1.36414L8.77839 7.32635L9.13043 7.6814ZM2.62747 1.58276L8.77839 7.6814L9.13043 7.32635L2.97951 1.2277L2.62747 1.58276Z" fill="#5B1A0D"/>
</svg>

<svg width="18" height="18" fill="none" xmlns="http://www.w3.org/2000/svg"><path fill-rule="evenodd" clip-rule="evenodd" d="M2.803 1.405a1.01 1.01 0 0 0-1.42 0l-.089.089a.99.99 0 0 0 0 1.408L7.445 9 1.295 15.1a.99.99 0 0 0 0 1.408l.088.088a1.01 1.01 0 0 0 1.42 0l6.151-6.098 6.013 5.962a1.01 1.01 0 0 0 1.42 0l.09-.089a.99.99 0 0 0 0-1.408L10.463 9l6.014-5.962a.99.99 0 0 0 0-1.408l-.089-.088a1.01 1.01 0 0 0-1.42 0L8.954 7.504l-6.15-6.099z" fill="#5B1A0D"/><path d="m1.383 1.405.176.178-.176-.178zm1.42 0 .177-.177-.177.177zm-1.509.089.176.177-.176-.177zm0 1.408-.176.177.176-.177zM7.445 9l.176.178.18-.178-.18-.177L7.445 9zM1.295 15.1l.175.177-.176-.177zm0 1.408-.177.177.176-.177zm.088.088.176-.178-.176.178zm1.42 0 .176.177-.176-.177zm6.151-6.098.176-.178-.176-.175-.176.175.176.177zm6.013 5.962-.176.177.176-.177zm1.42 0 .177.177-.176-.177zm.09-.089-.176-.177.176.177zm0-1.408.176-.177-.176.177zM10.463 9l-.176-.178-.179.178.18.177.175-.177zm6.014-5.962.176.177-.176-.177zm0-1.408-.176.177.176-.177zm-.089-.088.176-.178-.176.178zm-1.42 0 .176.177-.176-.177zM8.954 7.504l-.176.177.176.175.176-.175-.176-.177zM1.56 1.583a.76.76 0 0 1 1.068 0l.353-.355a1.26 1.26 0 0 0-1.773 0l.352.355zm-.089.088.09-.088-.353-.355-.089.088.352.355zm0 1.053a.74.74 0 0 1 0-1.053l-.352-.355a1.24 1.24 0 0 0 0 1.763l.352-.355zm6.151 6.099-6.15-6.099-.353.355L7.27 9.178l.352-.355zm-6.15 6.453 6.15-6.098-.352-.355-6.15 6.098.351.355zm0 1.053a.74.74 0 0 1 0-1.053l-.353-.355a1.24 1.24 0 0 0 0 1.763l.352-.355zm.088.088-.089-.088-.352.355.09.088.351-.355zm1.068 0a.76.76 0 0 1-1.068 0l-.352.355a1.26 1.26 0 0 0 1.772 0l-.352-.355zm6.15-6.098-6.15 6.098.352.355 6.151-6.098-.352-.355zm6.366 5.962L9.13 10.32l-.352.355 6.013 5.962.352-.355zm1.069 0a.76.76 0 0 1-1.069 0l-.352.355a1.26 1.26 0 0 0 1.773 0l-.352-.355zm.089-.088-.09.088.353.355.089-.088-.352-.355zm0-1.053a.74.74 0 0 1 0 1.053l.352.355a1.24 1.24 0 0 0 0-1.763l-.352.355zm-6.014-5.963 6.014 5.963.352-.355-6.014-5.963-.352.355zm6.014-6.317-6.014 5.962.352.355 6.014-5.962-.352-.355zm0-1.053a.74.74 0 0 1 0 1.053l.352.355a1.24 1.24 0 0 0 0-1.763l-.352.355zm-.09-.088.09.088.352-.355-.089-.088-.352.355zm-1.067 0a.76.76 0 0 1 1.068 0l.352-.355a1.26 1.26 0 0 0-1.772 0l.352.355zM9.13 7.681l6.014-5.962-.352-.355-6.014 5.962.352.355zM2.627 1.583 8.778 7.68l.352-.355-6.15-6.098-.353.355z" fill="#5B1A0D"/></svg>
